X: 17
T: Tam Lin
R: reel
M: 4/4
L: 1/8
K: Bmin
|:F2 BFdF BF|G2 BGdG BG|A2 cAeA cA|dcBA FBBA|
F2 BFdF BF|G2 BGdG BG|A2 cAeA cA|dcBA FB B2||
|:BF F2 DFBF|BF F2 DFBF|AE E2 cE E2|AE E2 ABcA|
BF F2 DFBF|BF F2 DFBF|G3A B3c|dcBA FB B2||


Tune 248	Setting 21722

